src/24/actions/draw-path.svg

<svg xmlns="http://www.w3.org/2000/svg" viewBox="0 0 24 24">
  <defs id="defs3051">
    <style type="text/css" id="current-color-scheme">
      .ColorScheme-Text {
        color:#5d656b;
      }
      </style>
  </defs>
 <path style="fill:currentColor;fill-opacity:1;stroke:none" 
     d="M 4 4 L 4 7 L 5 7 L 5 14.996094 L 4.0039062 15.992188 L 4 15.992188 L 4 20 L 5 20 L 7 20 L 8.0078125 20 L 8.0078125 19.996094 L 9.0078125 18.996094 L 17 18.996094 L 17 20 L 20 20 L 20 17 L 17 17 L 17 18 L 10.003906 18 L 20 8.0039062 L 19.998047 8.0019531 L 20 8 L 16 4 L 15.998047 4.0019531 L 15.996094 4 L 6 13.996094 L 6 7 L 7 7 L 7 4 L 4 4 z M 5 5 L 6 5 L 6 6 L 5 6 L 5 5 z M 15.998047 5.4121094 L 18.587891 8.0019531 L 16.587891 10.001953 L 9.7949219 16.794922 L 9 16 L 7.2050781 14.205078 L 13.998047 7.4121094 L 15.998047 5.4121094 z M 18 18 L 19 18 L 19 19 L 18 19 L 18 18 z "
     class="ColorScheme-Text"
     />
</svg>

<svg xmlns="http://www.w3.org/2000/svg" viewBox="0 0 24 24"><path d="M4 4v3h1v7.996l-.996.996H4V20h4.008v-.004l1-1H17V20h3v-3h-3v1h-6.996L20 8.004l-.002-.002L20 8l-4-4-.002.002L15.996 4 6 13.996V7h1V4H4zm1 1h1v1H5V5zm10.998.412l2.59 2.59-2 2-6.793 6.793L9 16l-1.795-1.795 6.793-6.793 2-2zM18 18h1v1h-1v-1z" fill="currentColor" color="#5d656b"/></svg>
